X:3
T:Untitled
T:from James E Frill's Musick Book  p. 3
T: Dashing White Sargent
Z:Sarah Gowan
R:Reel
M:2/4
L:1/16
K:D
AF| DCDE D2F2 | AGAB A2f2 | d2B2A2F2 | B2E2 E2AF | 
 DCDE D2F2 | AGAB A2f2 | e2d2c2B2 | A2d2 d2||
A2 | AGAB c2cc | efed A2AA | BABc d2de | fgfd B2BB|
cBce dcdf | edeg fefa | gafg efde | cdBc A2G2 | 
F2d2 dcde | d2A2A2A2 | B2e2 edef | e2B2B2B2| 
A2d2 dcde | f2d2 dcde| f2>a2e2>f2 | d4z2|]
